X: 1
T: Vi \"aro musikanter
O: Trad
M: 2/4
L: 1/8
K: G
D | "G"G>F GA | B2 BB | "D7"A>G AB | "G"G2 z :|
w: Vi \"a-ro mu-si-kan-ter allt i-fr\aan Ska-ra-borg.
z | "G"B2 d2 | B2 d2 | "D7"A>A A>A | "G"B>A G2 |
